client/src/assets/specialists/pirate.svg

<svg xmlns="http://www.w3.org/2000/svg" xml:space="preserve" width="256" height="256" style="fill-rule:evenodd;clip-rule:evenodd;stroke-linejoin:round;stroke-miterlimit:2" viewBox="0 0 505 467"><path d="m304.731 196.731-60.095-96.158-79.537 112.45L288.13 505.751l95.898-211.814-26.883-21.497c-49.68 57.733-83.925 5.733-52.414-75.709ZM354.375 85.89l132.154 125.79a7.037 7.037 0 0 1-7.023 7.507h-17.611L342.5 416.44 546 212.842 354.375 85.89Zm-133.023 0L41 212.842 232.5 403.44 125.105 219.187h-17.611a7.041 7.041 0 0 1-7.023-7.507L221.352 85.89Zm-5.64 90.874c-6.712-3.902-13.576 20.017-7.322 47.095 6.254 27.078 25.625 57.316 71.383 66.052 3.816.728-28.287-92.348-64.061-113.147Zm153.912 81.532 20.799 21.631 31.319-66.849-133.644-173.95-35.112 49.641 59.233 92.987c6.033-10.538 16.639-25.791 16.639-25.791 16.429-3.979 58.314 38.172 61.642 56.475 0 0-3.854 22.917-20.876 45.856ZM381.5 211.44c-13.382-21.697-28.939-38.951-47.65-44.659-36.15 43.494-49.419 166.647 13.311 100.667 20.295-22.348 27.237-35.195 34.339-56.008Z" style="fill:#fff" transform="translate(-41 -39.128)"/></svg>

<?xml version="1.0" encoding="UTF-8" standalone="no"?>
<!DOCTYPE svg PUBLIC "-//W3C//DTD SVG 1.1//EN" "http://www.w3.org/Graphics/SVG/1.1/DTD/svg11.dtd">
<svg width="256" height="256" viewBox="0 0 505 467" version="1.1" xmlns="http://www.w3.org/2000/svg" xmlns:xlink="http://www.w3.org/1999/xlink" xml:space="preserve" xmlns:serif="http://www.serif.com/" style="fill-rule:evenodd;clip-rule:evenodd;stroke-linejoin:round;stroke-miterlimit:2;">
    <g transform="matrix(1,0,0,1,-47.5,-66.6884)">
        <g transform="matrix(1,0,0,1,6.5,27.5603)">
            <path d="M304.731,196.731L244.636,100.573L165.099,213.023L288.13,505.751L384.028,293.937L357.145,272.44C307.465,330.173 273.22,278.173 304.731,196.731ZM354.375,85.89L486.529,211.68C486.659,213.624 485.977,215.534 484.646,216.957C483.315,218.379 481.454,219.187 479.506,219.187L461.895,219.187L342.5,416.44L546,212.842L354.375,85.89ZM221.352,85.89L41,212.842L232.5,403.44L125.105,219.187L107.494,219.187C105.546,219.187 103.685,218.379 102.354,216.957C101.023,215.534 100.341,213.624 100.471,211.68L221.352,85.89ZM215.712,176.764C209,172.862 202.136,196.781 208.39,223.859C214.644,250.937 234.015,281.175 279.773,289.911C283.589,290.639 251.486,197.563 215.712,176.764ZM369.624,258.296L390.423,279.927L421.742,213.078L288.098,39.128L252.986,88.769L312.219,181.756C318.252,171.218 328.858,155.965 328.858,155.965C345.287,151.986 387.172,194.137 390.5,212.44C390.5,212.44 386.646,235.357 369.624,258.296ZM381.5,211.44C368.118,189.743 352.561,172.489 333.85,166.781C297.7,210.275 284.431,333.428 347.161,267.448C367.456,245.1 374.398,232.253 381.5,211.44Z" style="fill:white;"/>
        </g>
    </g>
</svg>
